svg/fluentui-system-icons/ic_fluent_color_fill_16_filled.svg

<svg width="16" height="16" viewBox="0 0 16 16" fill="none" xmlns="http://www.w3.org/2000/svg">
<path d="M7.99956 2.5C7.99956 2.22386 7.7757 2 7.49956 2C7.22341 2 6.99956 2.22386 6.99956 2.5V3.49967C6.79482 3.57188 6.60263 3.68986 6.43888 3.85362L3.85336 6.43935C3.26761 7.02515 3.26763 7.97486 3.8534 8.56063L5.93919 10.6464C6.52499 11.2322 7.47477 11.2322 8.06055 10.6464L10.6461 8.06065C11.2318 7.47485 11.2318 6.52514 10.646 5.93937L8.56025 3.85358C8.39649 3.68983 8.20429 3.57185 7.99956 3.49965V2.5ZM6.99956 4.70718V5.5C6.99956 5.77614 7.22341 6 7.49956 6C7.7757 6 7.99956 5.77614 7.99956 5.5V4.70711L9.93893 6.64648C10.0384 6.74596 10.0872 6.87694 10.0853 7.00733C10.0575 7.00251 10.0288 7 9.99956 7H4.70692L6.99956 4.70718ZM4.70698 8H9.29256L7.35342 9.9393C7.15816 10.1346 6.84156 10.1346 6.6463 9.93931L4.70698 8ZM8.76807 11.3535C7.79177 12.3298 6.2088 12.3299 5.23247 11.3535L3.14668 9.26774C3.12946 9.25052 3.11254 9.23311 3.09593 9.21552C2.44562 9.54563 2 10.2208 2 11V12C2 13.1046 2.89543 14 4 14H12C13.0015 14 13.8311 13.2638 13.9772 12.3031C13.5634 12.6065 13.0528 12.7857 12.5004 12.7857C11.1197 12.7857 10.0004 11.6664 10.0004 10.2857C10.0004 10.2274 10.0031 10.1699 10.008 10.1134L8.76807 11.3535ZM12.5 8C12.3493 8 12.2065 8.06802 12.1116 8.18511L12.1103 8.18668L12.1076 8.19004L12.0981 8.20192L12.0639 8.24519C12.0348 8.28222 11.9937 8.33516 11.9446 8.40022C11.8468 8.52985 11.7154 8.70993 11.5832 8.90962C11.452 9.10756 11.3137 9.33416 11.2064 9.55551C11.1077 9.75897 11 10.0269 11 10.2857C11 11.1141 11.6716 11.7857 12.5 11.7857C13.3284 11.7857 14 11.1141 14 10.2857C14 10.0269 13.8923 9.75897 13.7936 9.55551C13.6863 9.33416 13.548 9.10756 13.4168 8.90962C13.2846 8.70993 13.1532 8.52985 13.0554 8.40022C13.0063 8.33516 12.9652 8.28222 12.9361 8.24519L12.9019 8.20192L12.8924 8.19004L12.8897 8.18668L12.8884 8.18511C12.7935 8.06802 12.6507 8 12.5 8ZM12.5 9.33886C12.5275 9.37878 12.5554 9.41991 12.5832 9.46188C12.702 9.64134 12.8137 9.82664 12.8939 9.99189C12.9338 10.0743 12.9624 10.1444 12.9802 10.201C12.998 10.2572 12.9998 10.2835 13 10.2857C13 10.5619 12.7761 10.7857 12.5 10.7857C12.2239 10.7857 12 10.5617 12 10.2856C12.0002 10.2834 12.002 10.2572 12.0198 10.201C12.0376 10.1444 12.0662 10.0743 12.1061 9.99189C12.1863 9.82664 12.298 9.64134 12.4168 9.46188C12.4446 9.41991 12.4725 9.37878 12.5 9.33886Z" fill="#212121"/>
</svg>

<svg xmlns="http://www.w3.org/2000/svg" width="16" height="16"><path d="M8 2.5a.5.5 0 0 0-1 0v1a1.49 1.49 0 0 0-.561.354L3.853 6.439a1.5 1.5 0 0 0 0 2.122l2.086 2.085a1.5 1.5 0 0 0 2.122 0l2.585-2.585a1.5 1.5 0 0 0 0-2.122L8.56 3.854A1.494 1.494 0 0 0 8 3.5v-1ZM7 4.707V5.5a.5.5 0 1 0 1 0v-.793l1.939 1.94c.1.099.148.23.146.36A.502.502 0 0 0 10 7H4.707L7 4.707ZM4.707 8h4.586l-1.94 1.94a.5.5 0 0 1-.707 0L4.707 8Zm4.061 3.354a2.5 2.5 0 0 1-3.536 0L3.147 9.268a2.542 2.542 0 0 1-.051-.052A2 2 0 0 0 2 11v1a2 2 0 0 0 2 2h8a2 2 0 0 0 1.977-1.697 2.5 2.5 0 0 1-3.97-2.19l-1.239 1.24ZM12.5 8a.5.5 0 0 0-.388.185l-.002.002-.002.003-.01.012-.034.043a10.074 10.074 0 0 0-.48.665c-.132.198-.27.424-.378.646-.098.203-.206.47-.206.73a1.5 1.5 0 0 0 3 0c0-.26-.108-.527-.206-.73a5.751 5.751 0 0 0-.377-.646 10.33 10.33 0 0 0-.48-.665l-.035-.043-.01-.012-.002-.003-.002-.002A.5.5 0 0 0 12.5 8Zm0 1.339.083.123c.119.18.23.365.31.53.04.082.07.152.087.209.018.056.02.082.02.085a.5.5 0 1 1-1 0c0-.003.002-.029.02-.085.018-.057.046-.127.086-.21a4.816 4.816 0 0 1 .394-.652Z"/></svg>
